X:14
T:Blackberry, The
R:reel
C:Tiennet Simonnin
M:C
K:Amix
ceaf ~g3e|fedf eAA/A/A|ceaf ~g3a|bagb aged|
ceaf ~g3e|fedf eAAG|~E3A ~F3A|GABG A3B:|
c~A3 GAFA|EAA/A/A ~e3f|gfed BGB/c/d|~g3a bged|
c~A3 GAFA|EAA/A/A ~e3f|gfed BGBd|~e2dB A3B:|
